X:1
T:The Popular Wobbly (They Go Wild...)
M:4/4
L:1/8
K:G
 BA| G2 DC B,2 AG| F4 z2 AG| FF FE DD EF| G4 z2 BA| GD B,D G2 G_A|\
 =AE CE A2 cc| B2 AG A2 GF| G4 z2||
